X:140
T: Dever The Dancer
M: 9/8
L: 1/8
R: slip jig
K: Emin
|:BEE BEF G2A|BEE BAG FGA|BEE BEF G2A|B^cd ABG FED:|
|ded cAF G2A|Bdd def gfe|ded cAF G2A|B^cd ABG FED|
|ded cAF G2A|Bdd def gfe|agf gfe d2A|B^cd ABG FED||
